X: 315
T: 316. Christus, der ist mein Leben
N: Derived from chor316.krn
C: Johann Sebastian Bach
%%abc-version 2.0
%%abcx-abcm2ps-target-version 5.9.1 (29 Sep 2008)
%%abc-creator hum2abc beta
%%abcx-conversion-date 2019/03/11 17:28:19
%%abc-edited-by Craig Stuart Sapp
%%humdrum-veritas 735263365
%%humdrum-veritas-data 4271729507
%%
%%barnumbers 0
L: 1/4
M: 3/4
%%staves [1 2 3 4]
V: 1 clef=treble
V: 2 clef=treble
V: 3 clef=treble-8
V: 4 clef=bass
K: G
[V:1] G [I:setbarnb 1]| 
[V:2] D | 
[V:3] B | 
[V:4] G, | 
[V:1] B2A | 
[V:2] G2F | 
[V:3] d2d | 
[V:4] G,2D, | 
[V:1] B2c | 
[V:2] G2G | 
[V:3] d2c | 
[V:4] G,F,E, | 
[V:1] d3 | 
[V:2] G3/F//E//F | 
[V:3] B3/A//G//A | 
[V:4] B,,/C,/D,D, | 
[V:1] !fermata!B2z | 
[V:2] !fermata!D2x | 
[V:3] !fermata!G2x | 
[V:4] !fermata!G,,2z | 
[V:1] e3- | 
[V:2] z2z | 
[V:3] x3 | 
[V:4] z3 | 
[V:1] e3 | 
[V:2] =F3- | 
[V:3] x3 | 
[V:4] z3 | 
[V:1] d3- | 
[V:2] F3- | 
[V:3] ^G3- | 
[V:4] z3 | 
[V:1] d3 | 
[V:2] F3 | 
[V:3] G3 | 
[V:4] C,3- | 
[V:1] c3- | 
[V:2] E3 | 
[V:3] A3- | 
[V:4] C,3/B,,/C,/A,,/ | 
[V:1] c/B/!fermata!cz | 
[V:2] ^F!fermata!Fx | 
[V:3] A!fermata!Ax | 
[V:4] D,!fermata!D,z | 
[V:1] Be/c/A | 
[V:2] G/F/EF/E/ | 
[V:3] G/B/ B/A//B//c | 
[V:4] E,/D,/C,C, | 
[V:1] !fermata!B2d | 
[V:2] !fermata!^D2G | 
[V:3] !fermata!F2=d | 
[V:4] !fermata!B,,2B, | 
[V:1] e2f | 
[V:2] G2A | 
[V:3] c2c | 
[V:4] B,2A, | 
[V:1] g2f | 
[V:2] B2A | 
[V:3] d2d | 
[V:4] G,B,D | 
[V:1] e3 | 
[V:2] B/A/G3/A//G// | 
[V:3] d3/^c//B//^c | 
[V:4] G,/F,/E,A, | 
[V:1] !fermata!d2B | 
[V:2] !fermata!F2G | 
[V:3] !fermata!A2e | 
[V:4] !fermata!D,2E,/D,/ | 
[V:1] A2G | 
[V:2] GFE | 
[V:3] eBB | 
[V:4] ^C,^D,E, | 
[V:1] G2F | 
[V:2] ED2 | 
[V:3] c/B/ A/B/c | 
[V:4] =C,=D,2 | 
[V:1] !fermata!G2 |]  
[V:2] !fermata!D2 |]  
[V:3] !fermata!B2 |]  
[V:4] !fermata!G,,2 |]  



